X:82
T:Hockley in the hole
R:Jig
M:6/8
L:1/8
Q:100
K:GMix
dBG dBG|g2e c>de/2f/2|dBG dBG|1 d2B G3:|2 d2B G2G|:
GAG G2B|ABA ce2|dBG GAB|1 A2G G2G:|2 A2G G2 z||

